img/section6-element.svg

<svg fill="none" height="285" viewBox="0 0 390 285" width="390" xmlns="http://www.w3.org/2000/svg" xmlns:xlink="http://www.w3.org/1999/xlink"><linearGradient id="a" gradientUnits="userSpaceOnUse" x1="407.173" x2="27.4767" y1="22.7441" y2="319.899"><stop offset="0" stop-color="#ff681d"/><stop offset=".22" stop-color="#ff8034"/><stop offset=".44" stop-color="#32a0c5"/><stop offset=".74" stop-color="#0085c4"/><stop offset="1" stop-color="#0072b2"/></linearGradient><path d="m390 168.303c-17.601-5.11-35.008-12.54-53.344-7.165-20.639 6.037-38.84 19.406-57.862 29.051-9.269 4.703-30.417 15.247-35.656-.843-1.083-3.337-.498-7.092 1.205-10.161 6.145-11.091 20.469-9.405 30.706-13.724 13.934-5.87 26.279-16.414 35.36-28.369 6.528-8.597 11.383-18.559 19.103-26.219 7.59-7.534 17.664-11.9548 27.703-15.2153 10.639-3.4637 21.638-5.7052 32.785-6.681v-88.174229c-58.499-5.663941-88.063 38.369129-113.853 81.771729-25.791 43.4028-57.152 48.4358-93.727 36.4848-40.961-13.383-62.276-67.9255-103.1632-72.3389-40.8877-4.4135-79.25680478 62.9029-79.25680478 62.9029l-.00000766 175.171h390.00001244z" fill="url(#a)"/></svg>

<svg width="390" height="285" viewBox="0 0 390 285" fill="none" xmlns="http://www.w3.org/2000/svg">
<path d="M390 168.303C372.399 163.193 354.992 155.763 336.656 161.138C316.017 167.175 297.816 180.544 278.794 190.189C269.525 194.892 248.377 205.436 243.138 189.346C242.055 186.009 242.64 182.254 244.343 179.185C250.488 168.094 264.812 169.78 275.049 165.461C288.983 159.591 301.328 149.047 310.409 137.092C316.937 128.495 321.792 118.533 329.512 110.873C337.102 103.339 347.176 98.9182 357.215 95.6577C367.854 92.194 378.853 89.9525 390 88.9767L390 0.802471C331.501 -4.86147 301.937 39.1716 276.147 82.5742C250.356 125.977 218.995 131.01 182.42 119.059C141.459 105.676 120.144 51.1335 79.2568 46.7201C38.3691 42.3066 -4.77826e-06 109.623 -4.77826e-06 109.623L-1.24352e-05 284.794L390 284.794L390 168.303Z" fill="url(#paint0_linear_209_1339)"/>
<defs>
<linearGradient id="paint0_linear_209_1339" x1="407.173" y1="22.7441" x2="27.4767" y2="319.899" gradientUnits="userSpaceOnUse">
<stop stop-color="#FF681D"/>
<stop offset="0.22" stop-color="#FF8034"/>
<stop offset="0.44" stop-color="#32A0C5"/>
<stop offset="0.74" stop-color="#0085C4"/>
<stop offset="1" stop-color="#0072B2"/>
</linearGradient>
</defs>
</svg>
